X: 189
T: Bahar Geldi Gül Açıldı
C: Muhlis Sabahaddin Ezgi
O: Turkey
F: http://compmusic.upf.edu/node/140
N: hicazkar--sarki--kapali_curcuna--bahar_geldi--muhlis_sabahaddin_ezgi
N: makam= hicazkar
N: form= sarki
N: usul= kapali_curcuna = 10/8
M: 10/8
L: 1/16
K: C _1/4B _7/8e _7/8A ^f
Q: 1/4=200
%%MIDI tuningsystem comma53
G6d4c2 d2e2 d2c2  | B16-B4  | G6d4c2 d2e2 d2c2  | g16-g4  | \
w:  ARANAĞME  |   |   |   | 
g6a2 g2=f2 g2a_b aga2  | 
w:   | 
=f6g2 f2e2 f2ga gfg2  | d2e2 =e2=f2 e2f2 g2_7/8e2 d2c2  | \
w:   |   | 
B6c2 B2c2 A2G6  | 
w:   | 
G6d4c2 d2e2 d2c2  | B16-B4  | G6d4c2 d2e2 d2c2  | g16-g4  | \
w:  ARANAĞME  |   |   |   | 
g6a2 g2=f2 g2a_b aga2  | 
w:   | 
=f6g2 f2e2 f2ga gfg2  | d2e2 =e2=f2 e2f2 g2_7/8e2 d2c2  | \
w:   |   | 
D6G4D4G6  | 
w:   | 
D6G4D4G6  | g6g4g2 f2g6  | =a6_b2 a2g2 f2e2 d2c2  | \
w:   |  Ba har  gel *  di   |  gül  a *  çıl *  dı   | 
e4 d2c2 e2d2 c2B2 A2G2  | 
w:  aş *  ka  *  gel *  di   | 
B6c2 B2c2 A2G6  | g3f e2d2 c2B2 A2G6  | \
w:  bül bül  *  şim *  di   |  SAZ  | 
d6e4f4g6  | =a6_b2 a2g2 f2g2 a2_1/4b2  | 
w:  Ye şil len di   |  bü tün  *  dağ *  lar   | 
c'6c'2 _b2=a2 g2f2 g2a2  | f6g2 f2g2 e2d6  | \
w:  çi çek *  len *  di   |  bağ lar  *  şim *  di   | 
c'6_b2 =a2g2 f2e2 d4  | 
w:  SAZ  | 
g6a2 g2=f2 g2a2 {b}aga2  | =f6g2 f2e2 f2g2 {a}gfg2  | \
w:  Ku zu  *  me *  ler   |  kuş lar  *  ö *  ter   | 
d2e2 =e2=f2 e2f2 g2_7/8e2 d2c2  | 
w:  de  *  *  re  *  ha *  zin   | 
e2d2 c2B2 c2d2 ed{e}d6  | B6c2 B2c2 A2G6  | \
w:  ha *  *  zin  *  çağ *  *  *  lar   |  U zak *  ta  *  bir   | 
d6e2 d2e2 c2B4z2  | 
w:  ka val  *  ağ *  lar   | 
g6f2 e2d2 c2B2 c2d2  | B6c2 B2c2 A2G6  | \
w:  aş ka  *  gel *  miş   |  ço ban  *  kı *  zı   | 
G6d4c2 d2e2 d2c2  | 
w:  ARANAĞME  | 
B16-B4  | G6d4c2 d2e2 d2c2  | g16-g4  | \
w:   |   |   | 
g6a2 g2=f2 g2a_b aga2  | 
w:   | 
=f6g2 f2e2 f2ga gfg2  | d2e2 =e2=f2 e2f2 g2_7/8e2 d2c2  | \
w:   |   | 
B6c2 B2c2 A2G6  | 
w:   | 
G6d4c2 d2e2 d2c2  | B16-B4  | G6d4c2 d2e2 d2c2  | g16-g4  | \
w:  ARANAĞME  |   |   |   | 
g6a2 g2=f2 g2a_b aga2  | 
w:   | 
=f6g2 f2e2 f2ga gfg2  | d2e2 =e2=f2 e2f2 g2_7/8e2 d2c2  | \
w:   |   | 
D6G4D4G6  | 
w:   | 
D6G4D4G6  | g6g4g2 f2g6  | =a6_b2 a2g2 f2e2 d2c2  | \
w:   |  Ba har  gel *  di   |  gül  a *  çıl *  dı   | 
e4 d2c2 e2d2 c2B2 A2G2  | 
w:  aş *  ka  *  gel *  di   | 
B6c2 B2c2 A2G6  | g3f e2d2 c2B2 A2G6  | \
w:  bül bül  *  şim *  di   |  SAZ  | 
d6e4f4g6  | =a6_b2 a2g2 f2g2 a2_1/4b2  | 
w:  Ye şil len di   |  bü tün  *  dağ *  lar   | 
c'6c'2 _b2=a2 g2f2 g2a2  | f6g2 f2g2 e2d6  | \
w:  çi çek *  len *  di   |  bağ lar  *  şim *  di   | 
c'6_b2 =a2g2 f2e2 d4  | 
w:  SAZ  | 
g6a2 g2=f2 g2a2 {b}aga2  | =f6g2 f2e2 f2g2 {a}gfg2  | \
w:  Ku zu  *  me *  ler   |  kuş lar  *  ö *  ter   | 
d2e2 =e2=f2 e2f2 g2_7/8e2 d2c2  | 
w:  de  *  *  re  *  ha *  zin   | 
e2d2 c2B2 c2d2 ed{e}d6  | B6c2 B2c2 A2G6  | \
w:  ha *  *  zin  *  çağ *  *  *  lar   |  U zak *  ta  *  bir   | 
d6e2 d2e2 c2B4z2  | 
w:  ka val  *  ağ *  lar   | 
g6f2 e2d2 c2B2 c2d2  | B6c2 B2c2 A2G6  | |


